X:1
T:O Lord, how joyful is the King
T:William Cobbold
T:Source : The Whole Book of Psalms---London---Musical Antiquarian Society---1844. First publication : London---Th.Est(e)---1592. Editor : André Vierendeels (11/09/16).
T:Notes : Original clefs : G2, C2, C4, F3 Editorial accidentals above the staff Original note values have been halved
T:O Lord, how joyful is the King (Ps 21)
T:©
T:©
T:©
C:William Cobbold
Z:©
%%score [ 1 2 3 4 ]
L:1/8
Q:1/4=120
M:4/4
K:F
V:1 treble nm="Soprano" snm="S"
V:2 treble nm="Alto" snm="A"
V:3 treble-8 nm="Tenor" snm="T"
V:4 bass nm="Bass" snm="B"
V:1
 d4 c2 c2 | B2 c2 B2 G2 |[M:2/4] A4 ||[M:4/4] c2 f4 f2 | d2 _e2 d4 || c2 A2 A2 =B2 | c2 A2 B2 c2 | %7
w: O Lord, how|joy- ful is the|King,|in thy strenght|and thy power,|how ve- he- ment-|ly doth he re-|
[M:2/4] d4 ||[M:4/4] c2 c4 A2 | B2 A2 A4 || B2 f4 e2 | f2 g2 f3 _e |[M:2/4] d4 || %13
w: joice,|in thee his|Sa- vi- our,|for thou hast|gi- ven un- to|him,|
[M:4/4]"^-natural" c2 e4 A2 | c3 B A4 || A4 d2 d2 | G2 B2 A2 =B2 |[M:2/4] c4 | %18
w: his god- ly|heart's de- dire,|to him noth-|ing hast thou de-|nied,|
[M:4/4] B2 c2 A2 d2- | d2 ^c2 d4 |] %20
w: of that he did|_ re- quire.|
V:2
 F4 E2 F2 | F3 F G2 B2 |[M:2/4] A4 ||[M:4/4] G2 B2 A4 | G2 G2 ^F4 ||"^-natural" F2 F2 F2 F2 | %6
w: O Lord, how|joy- ful is the|King,|in thy strenght|and thy power,|how ve- he- ment-|
 G2 F2 F2 GA |[M:2/4] B4 ||[M:4/4] A2 G4 F2 | G2 E2 ^F4 || G2 A4 A2 | A2 G2 B2 AG |[M:2/4] ^F4 || %13
w: ly doth he re- *|joice,|in thee his|Sa- vi- our,|for thou hast|gi- ven un- to _|him,|
[M:4/4] A2 G4 F2 | F2 E2 F4 || F2 F4 F2 | E2 F2 F2 F2 |[M:2/4] G4 |[M:4/4] G2 A4 G2 | A3 G ^F4 |] %20
w: his god- ly|heart's de- sire,|to him noth-|ing hast thou de-|nied,|of that he|did re- quire.|
V:3
 A4 A2 A2 | d2 c2 d2 e2 |[M:2/4] f4 ||[M:4/4] c2 d4 A2 | B2 c2 A4 || A2 c2 c2 d2 | e2 c2 d2 e2 | %7
w: O Lord, how|joy- ful is the|King,|in thy strenght|and thy power,|how ve- he- ment-|ly doth he re-|
[M:2/4] f4 ||[M:4/4] f2 e4 d2 | d2 ^c2 d4 || d2 d4 c2 | d2 G2 d2 c2 |[M:2/4] A4 || %13
w: joice,|in thee his|Sa- vi- our,|for thou hast|gi- ven un- to|him,|
[M:4/4] A2 c4 F2 | A2 G2 F4 || F2 A4 B2 | c2 d2 c2 d2 |[M:2/4] e4 |[M:4/4] d2 f4 d2 | e2 e2 d4 |] %20
w: his god- ly|heart's de- sire,|to him noth-|ing hast thou de-|nied,|of that he|did re- quire.|
V:4
 D,4 A,2 F,2 | B,2 A,2 G,2 G,2 |[M:2/4] F,4 ||[M:4/4] E,2 D,4 D,2 | G,2 C,2 D,4 || F,2 F,3 E, D,2 | %6
w: O Lord, how|joy- ful is the|King,|in thy strenght|and thy power,|how ve- he- ment-|
 C,2 F,2 D,2 C,2 |[M:2/4] B,,4 ||[M:4/4] F,2 C,4 D,2 | G,2 A,2 D,4 || G,2 D,4 A,2 | %11
w: ly doth he re-|joice,|in thee his|Sa- vi- our,|for thou hast|
 D,2 _E,2 B,,2 C,2 |[M:2/4] D,4 ||[M:4/4] F,2 C,4 D,2 | C,2 C,2 F,4 || D,2 D,4 D,2 | %16
w: gi- ven un- to|him,|his god- ly|heart's de- sire,|to him noth-|
 C,2 B,,2 F,2 D,2 |[M:2/4] C,4 |[M:4/4] G,2 F,4 B,2 | A,2 A,2 D,4 |] %20
w: ing hast thou de-|nied,|of that he|did re- quire.|

